icons/folder_type_public.svg

<svg xmlns="http://www.w3.org/2000/svg" viewBox="0 0 32 32"><path d="M27.5 5.5h-9.3l-2.1 4.2H4.4v16.8h25.2v-21Zm0 4.2h-8.2l1.1-2.1h7.1Z" style="fill:#00a23c"/><path d="M22.6 16.3a3.787 3.787 0 0 1 1.8 2.8 3.048 3.048 0 1 0-1.8-2.8Zm-2 6.3a3.1 3.1 0 1 0-3.1-3.1 3.116 3.116 0 0 0 3.1 3.1Zm1.3.2h-2.6a3.9 3.9 0 0 0-3.9 3.9V30l.2.1a16.106 16.106 0 0 0 5.4.9 9.638 9.638 0 0 0 4.7-.9l.2-.1v-3.2a4.148 4.148 0 0 0-4-4Zm5.1-3.2h-2.6a3.225 3.225 0 0 1-1.2 2.6 4.621 4.621 0 0 1 3.3 4.5v1a9.782 9.782 0 0 0 4.1-.9l.2-.1v-3.2a3.82 3.82 0 0 0-3.8-3.9Zm-11.8-.2a3.022 3.022 0 0 0 1.6-.5 3.71 3.71 0 0 1 1.4-2.4v-.2a3.1 3.1 0 0 0-6.2 0 3.272 3.272 0 0 0 3.2 3.1Zm2.7 2.9a4.2 4.2 0 0 1-1.2-2.6h-2.9a3.9 3.9 0 0 0-3.9 3.9v3.2l.2.1a16.28 16.28 0 0 0 4.4.8v-1a4.81 4.81 0 0 1 3.4-4.4Z" style="fill:#aaffa2"/></svg>

<svg xmlns="http://www.w3.org/2000/svg" viewBox="0 0 32 32"><title>folder_type_public</title><path d="M27.5,5.5H18.2L16.1,9.7H4.4V26.5H29.6V5.5Zm0,4.2H19.3l1.1-2.1h7.1Z" style="fill:#00a23c"/><path d="M22.6,16.3a3.787,3.787,0,0,1,1.8,2.8,3.048,3.048,0,1,0-1.8-2.8Zm-2,6.3a3.1,3.1,0,1,0-3.1-3.1h0A3.116,3.116,0,0,0,20.6,22.6Zm1.3.2H19.3a3.9,3.9,0,0,0-3.9,3.9V30h0l.2.1A16.106,16.106,0,0,0,21,31a9.638,9.638,0,0,0,4.7-.9l.2-.1h0V26.8A4.148,4.148,0,0,0,21.9,22.8ZM27,19.6H24.4a3.225,3.225,0,0,1-1.2,2.6,4.621,4.621,0,0,1,3.3,4.5v1a9.782,9.782,0,0,0,4.1-.9l.2-.1h0V23.5A3.82,3.82,0,0,0,27,19.6Zm-11.8-.2a3.022,3.022,0,0,0,1.6-.5,3.71,3.71,0,0,1,1.4-2.4v-.2a3.1,3.1,0,0,0-6.2,0,3.272,3.272,0,0,0,3.2,3.1Zm2.7,2.9a4.2,4.2,0,0,1-1.2-2.6H13.8a3.9,3.9,0,0,0-3.9,3.9v3.2h0l.2.1a16.28,16.28,0,0,0,4.4.8v-1a4.81,4.81,0,0,1,3.4-4.4Z" style="fill:#aaffa2"/></svg>
